X: 1
T: Lord Kingarth
M: 4/4
L: 1/8
R: reel
K: Amix
|:eA (3AAA edBd|eA (3AAA GABd|eA (3AAA edBd|edgB BA A2:|
|:edeg abag|dedB degd|edeg abag|edgB BA A2:|
